X: 1
T:Brisk Young Lad's -- Jig
M:6/8
L:1/8
R:jig
B:Ryan's Mammoth Collection.
Z:Contributed by Ray Davies. ray:davies99.freeserve.co.uk
K:Amin
uE|v(A>B)A c2d|"4"edc (B2.A)|(G>"4"A)G B2c|dge dBG|\
(A>B)A c2d|"4"edc Bcd|"^4""_fz"(e2.A) AB^G|(A3 "_4""^0"a2)::
uB|v(c3/2d/e/f/) (g2.a)|gec gec|v(G3/2A/B/c/) (d2."4"e)|dBg dBG|\
(c3/2d/e/f/) (g2.a)|gec de^g|"_fz"(a2.A) AB^G|(A3 "04"a2) :|
